remix/System/lock-line.svg

<svg viewBox="0 0 24 24" fill="currentColor" xmlns="http://www.w3.org/2000/svg"><path d="M19 10H20C20.5523 10 21 10.4477 21 11V21C21 21.5523 20.5523 22 20 22H4C3.44772 22 3 21.5523 3 21V11C3 10.4477 3.44772 10 4 10H5V9C5 5.13401 8.13401 2 12 2C15.866 2 19 5.13401 19 9V10ZM5 12V20H19V12H5ZM11 14H13V18H11V14ZM17 10V9C17 6.23858 14.7614 4 12 4C9.23858 4 7 6.23858 7 9V10H17Z"/></svg>

<svg viewBox="0 0 24 24" xmlns="http://www.w3.org/2000/svg"><path fill="none" d="M0 0h24v24H0Z"/><path d="M19 10h1v0c.55 0 1 .44 1 1v10 0c0 .55-.45 1-1 1H4v0c-.56 0-1-.45-1-1V11v0c0-.56.44-1 1-1h1V9v0c0-3.87 3.13-7 7-7 3.86 0 7 3.13 7 7v1ZM5 12v8h14v-8H5Zm6 2h2v4h-2v-4Zm6-4V9v0c0-2.77-2.24-5-5-5C9.23 4 7 6.23 7 9v1h10Z"/></svg>
